T: Margaret Jackson
M: 4/4
L: 1/8
K: Gmaj
|:G2G2 GBdB|cBcd cG=FD|EDCE DCB,A|BGAF GFED|
G2G2 GBdB|cBcd ecG=F|E2CE D2B,D|1BGAF G2DF:|2 BGAF G2Bd||
|:g2fg bgfe|f2ef gdBd|c2ec Bcdc|BGAF GFED|
g2fg bgfe|f2ef gdBd|EGEC =FDB,D|1BGAF G2Bd:|2 BGAF G2DF||
